X:1
T:Para verme  con ventura
T:Juan del Encina
T:Source : Cancionera de Uppsala : Villancicos---Venetia---G.Scotto---1556. Editor : André Vierendeels (06/04/17).
T:Notes :  Original clefs  :  C1 (m 10-23) and C2 (m1-9 and  m24-40), Alto : C2 Editorial accidentals above the staff Original note values have been halved in 3-beat measures Dotted brackets indicate black notes
T:Para verme  con ventura
T:©
T:©
T:©
C:Juan del Encina
Z:©
%%score [ 1 2 ]
L:1/8
Q:1/4=120
M:6/4
K:C
V:1 treble nm="Soprano" snm="S"
V:2 treble nm="Alto" snm="A"
V:1
 z12 | z12 | c8 B4 | c4 G4 B4- | B2 G2 A4 G4 | z4 E6 F2 | G4 C4 E4- | E4 D8 | C8 C4 | z4 z4 E4 | %10
w: ||Pa- ra|ver- me con|_ ven- tu- ra|que me-|de- xe con|_ que-|rel- la,|mas|
w: ||Al can-|çar vic- to-|* ria bue- na,|y'al me-|ior tiem- po|_ per-|del- la,|mas|
 F4 E4 C4 | D6 E2 F4 | E4 A4 G4- | G2 E2 F4 E4 | z4 c4 B4- | B2 G2 A4 G4 | E4 A8 | G4 F8 | %18
w: va- le bi-|nir sin- el-|la, mas va-|* le bi- nir,|mas va-|* le bi- nir|sin- el-||
w: va- le bi-|,ir sin- el-|la, mas va-|* le bi- nir,|mas va-|* le bi- nir|sin- el-||
 E4 c4 B4- | B2 G2 A4 G4 | E4 A6 G2 | E4 F8 | E12 ||[M:2/2] z8 | z8 | E8 | A8 | G6 E2 | F4 G4 | %29
w: la, mas va-|* le bi- nir|sin- el- *||la.|||El|que|nun- ca|fin- tio|
w: le, mas va-|* le bi- nir|sin- el- *||la.|||co-|mo|el que|se- 'en|
 C8 | D8 | E8 | z8 | C8 | D8 | E4 D4 | C4 D4- | D4 C4 | B,4 A,4- | A,8 |] %40
w: glo-|ri-|a||no|sien-|te tan-|to la|_ pe-|* na.|_|
w: vic-|to-|ria,||y|des-|pues es-|ta en|_ ca-|de- na.|_|
V:2
 A8 G4 | A4 E4 G4- | G2 E2 F4 E4 | z4 C6 D2 | E4 A,4 C4- | C2 D2 E4 A,4- | A,4 C6 B,2 | A,8 G,4 | %8
w: Pa- ra|ver- me con|_ ven- tu- ra|que me-|de- xe, que|_ me- de- xe|_ con que-|rel- *|
w: Al can-|çar vic- to-|* ria bue- na,|y'al me-|ior tiem- po|_ _ _ _|* per- del-||
 A,8 E4 | F4 E4 C4 | D6 C2 A,4 | B,4 D8 | C6 A,2 B,4 | A,4 A4 G4- | G2 E2 F4 G4- | G2 E2 F4 E4 | %16
w: la, mas|va- le bi-|nir sin- el-|la, mas|va- le bi-|nir, mas va-|* le bi- nir|_ sin- el- la,|
w: la, mas|va- le bi-|nir, sin- el-|la, mas|va- le bi-|nir, mas va-|* le bi- nir|_ sin- el- la,|
 C4 A,3 B, C3 D | E8 D4 | E4 E4 G4- | G2 E2 F4 E4 | C4 F6 E2 | E8 D4 | E12 ||[M:2/2] z4 E4- | %24
w: sin- el- * * *||la, mas va-|* le bi- nir|sin- el- *||la.|El|
w: sin- el- * * *||la, mas va-|* le bi- nir|sin- el- *||la.|Y|
 E4 A4- | A4 G4- | G2 E2 F4 | D4 E4 | C4 G,4 | A,4 C4 | C4 B,4 | C4 C4 | D8 | E4 C4- | C4 B,4 | %35
w: _ que|no- sa-|be _ de|glo- ri-|a, de|glo- *|ri- a,|no sien-|te|tan- *|to la|
w: _ el|que sa|vis- * to|en vic-|to- *||ri- a,|no pue-|de|su- *|frir ca-|
 C4 G,4 | A,4 B,4 | G,4 A,4 |"^#" G,4 A,4- | A,8 |] %40
w: pe- *|||* na.|_|
w: de- *|||* na.|_|

